X:20
T:Le Reel De Grandmere
C:Traditional
S:The Fiddle Player's Tunebook
M:4/4
L:1/8
K:A
EC |\
"A"A,2 CE "A"A2 AB |\
"A"cAce "A"dcBA |\
"G"=G,2 B,D "G"=G,DB,D |\
"G"=G,2 B,D "G"B,A, =G,2 |\
"A"A,2 CE "A"A2 AB |\
"A"cAce "A"dcBA |\
"D"fd f2 "A"ecAc |\
"E"dBGB "A"A2 :|\
AB |\
"A"cBcd "A"e3 a |\
"D"fedf "A"e4 |\
"D"afdf "A"ecAc |\
"E"BABc "E"B2 AB |\
"A"cBcd "A"e3 a |\
"D"fedf "A"e4 |\
"D"afdf "A"ecAc |\
"E"BABc "A"A2 :|
